packages/Eid/src/ChandNightIcon/index.svg

<svg xmlns="http://www.w3.org/2000/svg" viewBox="0 0 32 32"><path fill="#37b678" d="M27.25306,20.24693l3.53983-3.53983a1,1,0,0,0,0-1.41422l-3.53983-3.53983a1,1,0,0,1-.29289-.70711V6.03982a1,1,0,0,0-1-1H20.95409a1,1,0,0,1-.70711-.29289L16.70711,1.20705a1,1,0,0,0-1.41422,0L11.753,4.74693a1,1,0,0,1-.70711.29289H6.03983a1,1,0,0,0-1,1v5.00612a1,1,0,0,1-.29289.70711L1.20711,15.29288a1,1,0,0,0,0,1.41422l3.53983,3.53983a1,1,0,0,1,.29289.70711v5.00612a1,1,0,0,0,1,1H11.046a1,1,0,0,1,.70711.29289l3.53983,3.53983a1,1,0,0,0,1.41422,0l3.53983-3.53983a1,1,0,0,1,.70711-.29289h5.00612a1,1,0,0,0,1-1V20.954A1,1,0,0,1,27.25306,20.24693Z"/><path fill="#2c2b2d" d="M16,31.585a1.49652,1.49652,0,0,1-1.06055-.43848l-3.54-3.54A.50547.50547,0,0,0,11.0459,27.46H6.04a1.50164,1.50164,0,0,1-1.5-1.5V20.9541a.49757.49757,0,0,0-.14649-.35351l-3.54-3.54a1.50121,1.50121,0,0,1,0-2.1211l3.54-3.54A.50337.50337,0,0,0,4.54,11.0459V6.04a1.50164,1.50164,0,0,1,1.5-1.5H11.0459a.50337.50337,0,0,0,.35351-.14649l3.54-3.54a1.50121,1.50121,0,0,1,2.1211,0l3.54,3.54A.49757.49757,0,0,0,20.9541,4.54H25.96a1.50164,1.50164,0,0,1,1.5,1.5V11.0459a.50547.50547,0,0,0,.14649.35351l3.54,3.54a1.50121,1.50121,0,0,1,0,2.1211l-3.54,3.54a.49554.49554,0,0,0-.14649.35351V25.96a1.50164,1.50164,0,0,1-1.5,1.5H20.9541a.49554.49554,0,0,0-.35351.14649l-3.54,3.54A1.49652,1.49652,0,0,1,16,31.585ZM6.04,5.54a.50034.50034,0,0,0-.5.5V11.0459a1.49079,1.49079,0,0,1-.43945,1.06055l-3.54,3.54a.5007.5007,0,0,0,0,.707l3.54,3.54A1.49079,1.49079,0,0,1,5.54,20.9541V25.96a.50065.50065,0,0,0,.5.5H11.0459a1.49079,1.49079,0,0,1,1.06055.43945l3.54,3.54a.49981.49981,0,0,0,.707,0l3.54-3.54A1.49079,1.49079,0,0,1,20.9541,26.46H25.96a.501.501,0,0,0,.5-.5V20.9541a1.49079,1.49079,0,0,1,.43945-1.06055l3.54-3.54a.49981.49981,0,0,0,0-.707l-3.54-3.54A1.49079,1.49079,0,0,1,26.46,11.0459V6.04a.50065.50065,0,0,0-.5-.5H20.9541a1.49079,1.49079,0,0,1-1.06055-.43945l-3.54-3.54a.49981.49981,0,0,0-.707,0l-3.54,3.54A1.49079,1.49079,0,0,1,11.0459,5.54Z"/><path fill="#e0e0e2" d="M13.874,25.13184A3.97182,3.97182,0,0,0,11.0459,23.96H8.04V20.9541A3.971,3.971,0,0,0,6.86816,18.126L4.74268,16l2.12548-2.126A3.97182,3.97182,0,0,0,8.04,11.0459V8.04H11.0459A3.97182,3.97182,0,0,0,13.874,6.86816L16,4.74268l2.126,2.12548A3.971,3.971,0,0,0,20.9541,8.04H23.96V11.0459A3.97182,3.97182,0,0,0,25.13184,13.874L27.25781,16l-2.126,2.126A3.971,3.971,0,0,0,23.96,20.9541V23.96H20.9541A3.971,3.971,0,0,0,18.126,25.13184L16,27.25781Z"/><path fill="#2c2b2d" d="M16,27.75781a.49842.49842,0,0,1-.35352-.14648l-2.126-2.126h0A3.47627,3.47627,0,0,0,11.0459,24.46H8.04a.49971.49971,0,0,1-.5-.5V20.9541a3.47376,3.47376,0,0,0-1.02539-2.47461l-2.12549-2.126a.49983.49983,0,0,1,0-.707l2.12549-2.126A3.47627,3.47627,0,0,0,7.54,11.0459V8.04a.49971.49971,0,0,1,.5-.5H11.0459a3.47627,3.47627,0,0,0,2.47461-1.02539l2.126-2.12549a.49983.49983,0,0,1,.707,0l2.126,2.12549A3.47376,3.47376,0,0,0,20.9541,7.54H23.96a.49971.49971,0,0,1,.5.5V11.0459a3.47627,3.47627,0,0,0,1.02539,2.47461l2.126,2.126a.49983.49983,0,0,1,0,.707l-2.126,2.126A3.47376,3.47376,0,0,0,24.46,20.9541V23.96a.49971.49971,0,0,1-.5.5H20.9541a3.47376,3.47376,0,0,0-2.47461,1.02539l-2.126,2.126A.49842.49842,0,0,1,16,27.75781Zm-1.77246-2.97949L16,26.55078l1.77246-1.77246A4.46726,4.46726,0,0,1,20.9541,23.46H23.46V20.9541a4.46726,4.46726,0,0,1,1.31836-3.18164L26.55078,16l-1.77246-1.77246A4.46655,4.46655,0,0,1,23.46,11.0459V8.54H20.9541a4.46524,4.46524,0,0,1-3.18164-1.31836L16,5.44971l-1.77246,1.772A4.46858,4.46858,0,0,1,11.0459,8.54H8.54V11.0459a4.46858,4.46858,0,0,1-1.31836,3.18164L5.44971,16l1.772,1.77246A4.46524,4.46524,0,0,1,8.54,20.9541V23.46H11.0459a4.46655,4.46655,0,0,1,3.18164,1.31836Z"/><path fill="#e0e0e2" d="M18.01463,12.965l.87244-1.7279a.20052.20052,0,0,1,.35961.00327l.84081,1.74351a.20053.20053,0,0,0,.15.11107l1.91294.29578a.20052.20052,0,0,1,.108.343l-1.39836,1.33844a.20053.20053,0,0,0-.05928.177l.30982,1.91071a.20051.20051,0,0,1-.29285.20872l-1.705-.91631a.20051.20051,0,0,0-.18661-.0017l-1.72145.8851a.20052.20052,0,0,1-.289-.214l.34458-1.90475a.20053.20053,0,0,0-.05605-.178l-1.37374-1.36368a.20052.20052,0,0,1,.11425-.341l1.918-.26089A.20047.20047,0,0,0,18.01463,12.965Z"/><path fill="#2c2b2d" d="M20.91309,17.89258a.6995.6995,0,0,1-.333-.084l-1.56543-.8413-1.58106.813a.70093.70093,0,0,1-1.01025-.74707l.31641-1.75049-1.26123-1.25244a.70056.70056,0,0,1,.39892-1.19189l1.76221-.23926.80078-1.5874a.66044.66044,0,0,1,.63281-.38477.69746.69746,0,0,1,.624.39551l.77246,1.60205,1.75683.272a.70053.70053,0,0,1,.37793,1.19825l-1.28515,1.23.28418,1.75537a.70049.70049,0,0,1-.69043.8125Zm.13964-.96533.001.00048ZM18.876,16.89258l.002.001Zm.1416-.96436a.7.7,0,0,1,.333.08448l1.16894.62793-.21191-1.31153a.69554.69554,0,0,1,.209-.61963l.958-.91748-1.31348-.20312a.69582.69582,0,0,1-.52441-.39014l-.57715-1.19531-.59863,1.18652a.69686.69686,0,0,1-.53223.37891l-1.31543.17871.94336.93652a.7.7,0,0,1,.19531.62158l-.23632,1.30811,1.18164-.60791A.69816.69816,0,0,1,19.01758,15.92822Zm2.19043-.49658-.002.002Zm.08594-.26416v0Zm-.75684-2.40381.001.00293Zm-.22559-.16357.00293.00049Z"/><path fill="#d9d8da" d="M12.207,10.38034A6.85605,6.85605,0,0,1,14.34533,9.159a.19974.19974,0,0,1,.21993.3145,7.05529,7.05529,0,0,0,6.56266,11.366.19948.19948,0,0,1,.16309.34682A6.87131,6.87131,0,0,1,18.57159,22.614,7.05607,7.05607,0,0,1,12.207,10.38034Z"/><path fill="#2c2b2d" d="M16.74756,23.35254a7.61109,7.61109,0,0,1-5.20215-2.04,7.4083,7.4083,0,0,1-2.36279-5.67285,7.6436,7.6436,0,0,1,2.70263-5.64209A7.35664,7.35664,0,0,1,14.17871,8.688a.6886.6886,0,0,1,.79883.251.69682.69682,0,0,1-.01953.84424,6.55508,6.55508,0,0,0,6.09668,10.56153.6994.6994,0,0,1,.74219.40527.69061.69061,0,0,1-.18165.81738,7.37886,7.37886,0,0,1-2.915,1.53028A7.60064,7.60064,0,0,1,16.74756,23.35254ZM13.563,10.05469a6.31639,6.31639,0,0,0-1.03418.70849h0A6.64327,6.64327,0,0,0,10.18213,15.667,6.422,6.422,0,0,0,12.23,20.584a6.63077,6.63077,0,0,0,6.2124,1.54688,6.393,6.393,0,0,0,1.68067-.71387h-.04688A7.55685,7.55685,0,0,1,13.563,10.05469Zm-1.356.32568h0Z"/><path fill="#2c2b2d" d="M16,31.585a1.49652,1.49652,0,0,1-1.06055-.43848l-3.54-3.54A.50547.50547,0,0,0,11.0459,27.46H6.04a1.50164,1.50164,0,0,1-1.5-1.5V20.9541a.49757.49757,0,0,0-.14649-.35351l-3.54-3.54a1.50121,1.50121,0,0,1,0-2.1211l3.54-3.54A.50337.50337,0,0,0,4.54,11.0459V6.04a1.50164,1.50164,0,0,1,1.5-1.5H11.0459a.50337.50337,0,0,0,.35351-.14649l3.54-3.54a1.50121,1.50121,0,0,1,2.1211,0l3.54,3.54A.49757.49757,0,0,0,20.9541,4.54H25.96a1.50164,1.50164,0,0,1,1.5,1.5V11.0459a.50547.50547,0,0,0,.14649.35351l3.54,3.54a1.50121,1.50121,0,0,1,0,2.1211l-3.54,3.54a.49554.49554,0,0,0-.14649.35351V25.96a1.50164,1.50164,0,0,1-1.5,1.5H20.9541a.49554.49554,0,0,0-.35351.14649l-3.54,3.54A1.49652,1.49652,0,0,1,16,31.585ZM6.04,5.54a.50034.50034,0,0,0-.5.5V11.0459a1.49079,1.49079,0,0,1-.43945,1.06055l-3.54,3.54a.5007.5007,0,0,0,0,.707l3.54,3.54A1.49079,1.49079,0,0,1,5.54,20.9541V25.96a.50065.50065,0,0,0,.5.5H11.0459a1.49079,1.49079,0,0,1,1.06055.43945l3.54,3.54a.49981.49981,0,0,0,.707,0l3.54-3.54A1.49079,1.49079,0,0,1,20.9541,26.46H25.96a.501.501,0,0,0,.5-.5V20.9541a1.49079,1.49079,0,0,1,.43945-1.06055l3.54-3.54a.49981.49981,0,0,0,0-.707l-3.54-3.54A1.49079,1.49079,0,0,1,26.46,11.0459V6.04a.50065.50065,0,0,0-.5-.5H20.9541a1.49079,1.49079,0,0,1-1.06055-.43945l-3.54-3.54a.49981.49981,0,0,0-.707,0l-3.54,3.54A1.49079,1.49079,0,0,1,11.0459,5.54Z"/></svg>

<svg xmlns="http://www.w3.org/2000/svg" viewBox="0 0 32 32">
  <path fill="#37b678" d="M27.253 20.247l3.54-3.54a1 1 0 000-1.414l-3.54-3.54a1 1 0 01-.293-.707V6.04a1 1 0 00-1-1h-5.006a1 1 0 01-.707-.293l-3.54-3.54a1 1 0 00-1.414 0l-3.54 3.54a1 1 0 01-.707.293H6.04a1 1 0 00-1 1v5.006a1 1 0 01-.293.707l-3.54 3.54a1 1 0 000 1.414l3.54 3.54a1 1 0 01.293.707v5.006a1 1 0 001 1h5.006a1 1 0 01.707.293l3.54 3.54a1 1 0 001.414 0l3.54-3.54a1 1 0 01.707-.293h5.006a1 1 0 001-1v-5.006a1 1 0 01.293-.707z"/>
  <path fill="#2c2b2d" d="M16 31.585a1.497 1.497 0 01-1.06-.438l-3.54-3.54a.505.505 0 00-.354-.147H6.04a1.502 1.502 0 01-1.5-1.5v-5.006a.498.498 0 00-.146-.353l-3.54-3.54a1.501 1.501 0 010-2.122l3.54-3.54a.503.503 0 00.146-.353V6.04a1.502 1.502 0 011.5-1.5h5.006a.503.503 0 00.353-.146l3.54-3.54a1.501 1.501 0 012.122 0l3.54 3.54a.498.498 0 00.353.146h5.006a1.502 1.502 0 011.5 1.5v5.006a.505.505 0 00.146.353l3.54 3.54a1.501 1.501 0 010 2.122l-3.54 3.54a.496.496 0 00-.146.353v5.006a1.502 1.502 0 01-1.5 1.5h-5.006a.496.496 0 00-.353.146l-3.54 3.54a1.497 1.497 0 01-1.061.439zM6.04 5.54a.5.5 0 00-.5.5v5.006a1.49 1.49 0 01-.44 1.06l-3.54 3.54a.5.5 0 000 .707l3.54 3.54a1.49 1.49 0 01.44 1.061v5.006a.5.5 0 00.5.5h5.006a1.49 1.49 0 011.06.44l3.54 3.54a.5.5 0 00.707 0l3.54-3.54a1.49 1.49 0 011.061-.44h5.006a.501.501 0 00.5-.5v-5.006a1.49 1.49 0 01.44-1.06l3.54-3.54a.5.5 0 000-.707l-3.54-3.54a1.49 1.49 0 01-.44-1.061V6.04a.5.5 0 00-.5-.5h-5.006a1.49 1.49 0 01-1.06-.44l-3.54-3.54a.5.5 0 00-.707 0l-3.54 3.54a1.49 1.49 0 01-1.061.44z"/>
  <path fill="#e0e0e2" d="M13.874 25.132a3.972 3.972 0 00-2.828-1.172H8.04v-3.006a3.971 3.971 0 00-1.172-2.828L4.743 16l2.125-2.126a3.972 3.972 0 001.172-2.828V8.04h3.006a3.972 3.972 0 002.828-1.172L16 4.743l2.126 2.125a3.971 3.971 0 002.828 1.172h3.006v3.006a3.972 3.972 0 001.172 2.828L27.258 16l-2.126 2.126a3.971 3.971 0 00-1.172 2.828v3.006h-3.006a3.971 3.971 0 00-2.828 1.172L16 27.258z"/>
  <path fill="#2c2b2d" d="M16 27.758a.498.498 0 01-.354-.147l-2.126-2.126a3.476 3.476 0 00-2.474-1.025H8.04a.5.5 0 01-.5-.5v-3.006a3.474 3.474 0 00-1.025-2.475l-2.126-2.126a.5.5 0 010-.707l2.126-2.126a3.476 3.476 0 001.025-2.474V8.04a.5.5 0 01.5-.5h3.006a3.476 3.476 0 002.475-1.025l2.126-2.126a.5.5 0 01.707 0l2.126 2.126a3.474 3.474 0 002.474 1.025h3.006a.5.5 0 01.5.5v3.006a3.476 3.476 0 001.025 2.475l2.126 2.126a.5.5 0 010 .707l-2.126 2.126a3.474 3.474 0 00-1.025 2.474v3.006a.5.5 0 01-.5.5h-3.006a3.474 3.474 0 00-2.475 1.025l-2.126 2.126a.498.498 0 01-.353.147zm-1.772-2.98L16 26.551l1.772-1.773a4.467 4.467 0 013.182-1.318h2.506v-2.506a4.467 4.467 0 011.318-3.182L26.551 16l-1.773-1.772a4.467 4.467 0 01-1.318-3.182V8.54h-2.506a4.465 4.465 0 01-3.182-1.318L16 5.45l-1.772 1.772a4.469 4.469 0 01-3.182 1.318H8.54v2.506a4.469 4.469 0 01-1.318 3.182L5.45 16l1.772 1.772a4.465 4.465 0 011.318 3.182v2.506h2.506a4.467 4.467 0 013.182 1.318z"/>
  <path fill="#e0e0e2" d="M18.015 12.965l.872-1.728a.2.2 0 01.36.003l.84 1.744a.2.2 0 00.15.111l1.913.296a.2.2 0 01.108.343l-1.398 1.338a.2.2 0 00-.06.177l.31 1.91a.2.2 0 01-.292.21l-1.705-.917a.2.2 0 00-.187-.001l-1.721.885a.2.2 0 01-.29-.214l.345-1.905a.2.2 0 00-.056-.178l-1.374-1.364a.2.2 0 01.115-.34l1.918-.262a.2.2 0 00.152-.108z"/>
  <path fill="#2c2b2d" d="M20.913 17.893a.7.7 0 01-.333-.084l-1.565-.842-1.581.813a.7.7 0 01-1.01-.747l.316-1.75-1.261-1.253a.7.7 0 01.398-1.192l1.763-.239.8-1.587a.66.66 0 01.633-.385.697.697 0 01.624.395l.773 1.603 1.757.272a.7.7 0 01.377 1.198l-1.285 1.23.285 1.755a.7.7 0 01-.69.813zm.14-.966zm-2.177-.034h.002zm.142-.965a.7.7 0 01.333.085l1.169.628-.212-1.312a.696.696 0 01.209-.62l.958-.917-1.314-.203a.696.696 0 01-.524-.39l-.577-1.196-.599 1.187a.697.697 0 01-.532.379l-1.316.179.944.936a.7.7 0 01.195.622l-.236 1.308 1.181-.608a.698.698 0 01.32-.078zm2.19-.496l-.002.002zm.086-.265zm-.757-2.403l.001.003zm-.225-.164h.002z"/>
  <path fill="#d9d8da" d="M12.207 10.38a6.856 6.856 0 012.138-1.221.2.2 0 01.22.315 7.055 7.055 0 006.563 11.366.2.2 0 01.163.346 6.871 6.871 0 01-2.72 1.428 7.056 7.056 0 01-6.364-12.234z"/>
  <path fill="#2c2b2d" d="M16.748 23.353a7.611 7.611 0 01-5.203-2.04 7.408 7.408 0 01-2.362-5.673 7.644 7.644 0 012.702-5.642 7.357 7.357 0 012.294-1.31.689.689 0 01.799.251.697.697 0 01-.02.844 6.555 6.555 0 006.097 10.562.7.7 0 01.742.405.69.69 0 01-.182.817 7.379 7.379 0 01-2.915 1.53 7.6 7.6 0 01-1.952.256zm-3.185-13.298a6.316 6.316 0 00-1.034.708 6.643 6.643 0 00-2.347 4.904 6.422 6.422 0 002.048 4.917 6.63 6.63 0 006.212 1.547 6.393 6.393 0 001.681-.714h-.047a7.557 7.557 0 01-6.513-11.362zm-1.356.325z"/>
  <path fill="#2c2b2d" d="M16 31.585a1.497 1.497 0 01-1.06-.438l-3.54-3.54a.505.505 0 00-.354-.147H6.04a1.502 1.502 0 01-1.5-1.5v-5.006a.498.498 0 00-.146-.353l-3.54-3.54a1.501 1.501 0 010-2.122l3.54-3.54a.503.503 0 00.146-.353V6.04a1.502 1.502 0 011.5-1.5h5.006a.503.503 0 00.353-.146l3.54-3.54a1.501 1.501 0 012.122 0l3.54 3.54a.498.498 0 00.353.146h5.006a1.502 1.502 0 011.5 1.5v5.006a.505.505 0 00.146.353l3.54 3.54a1.501 1.501 0 010 2.122l-3.54 3.54a.496.496 0 00-.146.353v5.006a1.502 1.502 0 01-1.5 1.5h-5.006a.496.496 0 00-.353.146l-3.54 3.54a1.497 1.497 0 01-1.061.439zM6.04 5.54a.5.5 0 00-.5.5v5.006a1.49 1.49 0 01-.44 1.06l-3.54 3.54a.5.5 0 000 .707l3.54 3.54a1.49 1.49 0 01.44 1.061v5.006a.5.5 0 00.5.5h5.006a1.49 1.49 0 011.06.44l3.54 3.54a.5.5 0 00.707 0l3.54-3.54a1.49 1.49 0 011.061-.44h5.006a.501.501 0 00.5-.5v-5.006a1.49 1.49 0 01.44-1.06l3.54-3.54a.5.5 0 000-.707l-3.54-3.54a1.49 1.49 0 01-.44-1.061V6.04a.5.5 0 00-.5-.5h-5.006a1.49 1.49 0 01-1.06-.44l-3.54-3.54a.5.5 0 00-.707 0l-3.54 3.54a1.49 1.49 0 01-1.061.44z"/>
</svg>
